src/shared/assets/character/add-character/characterAddCreate-defaultImage.svg

<svg width="153" height="92" viewBox="0 0 153 92" fill="none" xmlns="http://www.w3.org/2000/svg">
<g opacity="0.05">
<path d="M2.52008 77.3724C1.11238 72.9831 7.3603 61.3463 12.2481 56.5247L22.3245 74.9402C22.3245 74.9402 3.92777 81.7618 2.52008 77.3724Z" fill="black"/>
<path d="M11.5525 56.5245C11.5525 56.5245 -2.69325 75.635 3.56293 78.4147C7.77539 80.2863 15.7234 70.0756 15.7234 70.0756" stroke="black" stroke-width="3.94954" stroke-linecap="round" stroke-linejoin="round"/>
<path d="M31.3875 14.1284C-2.03854 36.2202 17.767 71.4672 17.767 71.4672C17.767 71.4672 7.68895 71.4672 9.07909 80.1538C10.4692 88.8404 27.0155 88.4929 39.5242 88.4929C51.9822 88.4929 58.3433 85.8732 60.5598 84.9603L60.5866 84.9493C60.7476 89.1621 81.6013 90.4324 107.597 89.7639C138.42 88.9712 139.031 73.5164 139.031 73.5164C139.031 73.5164 143.185 81.4718 147.37 78.7639C154.256 74.3081 146.246 54.8645 144.054 48.5464C147.051 40.7242 146.122 16.1029 118.08 6.22899C97.8179 -0.905632 52.1268 0.42147 31.3875 14.1284Z" fill="black"/>
<path d="M60.5866 84.9493C60.7476 89.1621 81.6013 90.4324 107.597 89.7639C138.42 88.9712 139.031 73.5164 139.031 73.5164C139.031 73.5164 143.185 81.4718 147.37 78.7639C154.256 74.3081 146.246 54.8645 144.054 48.5464C147.051 40.7242 146.122 16.1029 118.08 6.22899C97.8179 -0.905632 52.1268 0.42147 31.3875 14.1284C-2.03854 36.2202 17.767 71.4672 17.767 71.4672C17.767 71.4672 7.68895 71.4672 9.07909 80.1538C10.4692 88.8404 27.0155 88.4929 39.5242 88.4929C52.0328 88.4929 58.3948 85.8518 60.5866 84.9493ZM60.5866 84.9493C60.2877 77.1268 61.7826 73.5164 76.7275 73.5164" stroke="black" stroke-width="3.94954" stroke-linecap="round" stroke-linejoin="round"/>
</g>
<path d="M75.9747 33.9747C77.6316 33.9747 78.9747 35.3178 78.9747 36.9747V42.9747H84.9747C86.6316 42.9747 87.9747 44.3178 87.9747 45.9747C87.9747 47.6316 86.6316 48.9747 84.9747 48.9747H78.9747V54.9747C78.9747 56.6316 77.6316 57.9747 75.9747 57.9747C74.3179 57.9747 72.9747 56.6316 72.9747 54.9747V48.9747H66.9747C65.3179 48.9747 63.9747 47.6316 63.9747 45.9747C63.9747 44.3178 65.3179 42.9747 66.9747 42.9747H72.9747V36.9747C72.9747 35.3178 74.3179 33.9747 75.9747 33.9747Z" fill="black" fill-opacity="0.2"/>
</svg>

<svg xmlns="http://www.w3.org/2000/svg" fill="none" viewBox="0 0 153 92"><g opacity=".05"><path fill="#000" d="M2.52 77.372c-1.408-4.389 4.84-16.026 9.728-20.847L22.325 74.94S3.928 81.762 2.52 77.372"/><path stroke="#000" stroke-linecap="round" stroke-linejoin="round" stroke-width="3.95" d="M11.553 56.525s-14.246 19.11-7.99 21.89c4.212 1.871 12.16-8.34 12.16-8.34"/><path fill="#000" d="M31.388 14.128C-2.04 36.22 17.767 71.468 17.767 71.468s-10.078 0-8.688 8.686 17.937 8.339 30.445 8.339c12.458 0 18.82-2.62 21.036-3.533l.027-.01c.16 4.212 21.014 5.482 47.01 4.814 30.823-.793 31.434-16.248 31.434-16.248s4.154 7.956 8.339 5.248c6.886-4.456-1.124-23.9-3.316-30.218 2.997-7.822 2.068-32.443-25.974-42.317-20.262-7.135-65.953-5.808-86.692 7.9"/><path stroke="#000" stroke-linecap="round" stroke-linejoin="round" stroke-width="3.95" d="M60.587 84.95c.16 4.212 21.014 5.482 47.01 4.814 30.823-.793 31.434-16.248 31.434-16.248s4.154 7.956 8.339 5.248c6.886-4.456-1.124-23.9-3.316-30.218 2.997-7.822 2.068-32.443-25.974-42.317-20.262-7.135-65.953-5.808-86.692 7.9C-2.04 36.22 17.767 71.466 17.767 71.466s-10.078 0-8.688 8.687 17.937 8.339 30.445 8.339c12.509 0 18.87-2.641 21.063-3.544m0 0c-.3-7.823 1.196-11.434 16.14-11.434"/></g><path fill="#000" fill-opacity=".2" d="M75.975 33.975a3 3 0 0 1 3 3v6h6a3 3 0 1 1 0 6h-6v6a3 3 0 1 1-6 0v-6h-6a3 3 0 0 1 0-6h6v-6a3 3 0 0 1 3-3"/></svg>
